X: 298
T:Spider Island
% Nottingham Music Database
S:JP/AFJC Jerry Robichaud, via EF
M:6/8
K:D
F/2G/2|"D"ABA FAd|"D"f2d "A7"AFG|"D"ABA FAd|"A"c3 cAB|"A"c2c cBA|
"Em"g2g gfe|"A7"c2c cBA|"D"f3 "A7"fFG|"D"ABA FAd|"D"f2d "A7"AFG|
"D"ABA FAd|"A"c3 cAB|"A"c2c cBA|"Em"g/2a/2g/2f/2g eAB|"A7"ceg fce|
"D"d3 d2d|"D"ded c2d|"D"b2a "A7"f2d|"D"ded "Bm"c2B|"Em"g3 gAB|"A"c2c cBA|
"Em"g2g gfe|"A7"c2c cBA|"D"f3 -"A7"f2A|"D"ded c2d|"D"b2a "A7"f2d|\
"D"ded "Bm"c2B|
"Em"g3 gAB|"A"c2c cBA|"Em"g/2a/2g/2f/2g cAB|"A7"ceg f2e|"D"d3 d2:|


